X: 13323
M: C
L: 1/8
K: D
V: 1 clef=treble middle=B
d2d>d (c2d)z/e/ | (fB)(ed) (cA)(Bc) |\
d2d>d (c2d)z/e/ | (fd)(ec) d2 :|\
d2 |\
cBAG FEDd | cBAG FEDd |
cBAG FFGA | B2e>d cABc |\
d2d>d (c2d)z/e/ | (fB)(ed) (cA)(Bc) |\
d2d>d (c2d)z/e/ | (fd)(ec) d2 |]
V: 2 clef=bass middle=d
z2 |\
d4 e2f>g | a2A2 d2 :| d'2 |\
c'bag fddd' | c'bag fedd' |
c'bag fdef | g2^g2 a2A2 |\
d4 e2f2 | g2^g2 a2A2 |\
d4 e2f>g | a2A2 d2 |]

